img/header__timer.svg

<svg width="19" height="19" viewBox="0 0 19 19" fill="none" xmlns="http://www.w3.org/2000/svg">
<path d="M16.2175 2.78246C14.4232 0.988149 12.0375 0 9.5 0C6.96246 0 4.57681 0.988149 2.78246 2.78246C0.988111 4.57677 0 6.96246 0 9.5C0 12.0375 0.988149 14.4232 2.78246 16.2175C4.57677 18.0119 6.96246 19 9.5 19C12.0375 19 14.4232 18.0119 16.2175 16.2175C18.0119 14.4232 19 12.0375 19 9.5C19 6.96246 18.0119 4.57681 16.2175 2.78246ZM15.7977 15.7977C14.1155 17.4799 11.8789 18.4062 9.5 18.4062C7.12107 18.4062 4.88448 17.4799 3.20232 15.7977C1.52015 14.1155 0.59375 11.8789 0.59375 9.5C0.59375 7.12107 1.52015 4.88448 3.20232 3.20232C4.88448 1.52015 7.12107 0.59375 9.5 0.59375C11.8789 0.59375 14.1155 1.52015 15.7977 3.20232C17.4799 4.88448 18.4062 7.12107 18.4062 9.5C18.4062 11.8789 17.4799 14.1155 15.7977 15.7977Z" fill="black"/>
<path d="M1.78125 9.5C1.78125 5.24389 5.24389 1.78125 9.5 1.78125C11.0351 1.78125 12.518 2.23068 13.7882 3.08097C13.9244 3.17218 14.1088 3.13567 14.2 2.9994C14.2912 2.86317 14.2547 2.67878 14.1184 2.58756C12.7502 1.67163 11.1531 1.1875 9.5 1.1875C7.27963 1.1875 5.1922 2.05215 3.62217 3.62217C2.05215 5.1922 1.1875 7.27963 1.1875 9.5C1.1875 11.5484 1.93911 13.5164 3.30392 15.0415C3.36255 15.107 3.44375 15.1404 3.52524 15.1404C3.59571 15.1404 3.66648 15.1154 3.72311 15.0647C3.84527 14.9553 3.8557 14.7677 3.74634 14.6455C2.47917 13.2295 1.78125 11.4021 1.78125 9.5Z" fill="black"/>
<path d="M16.4122 4.88163C16.3209 4.74537 16.1365 4.70885 16.0003 4.80007C15.8641 4.89128 15.8275 5.07568 15.9187 5.21191C16.769 6.48209 17.2184 7.9649 17.2184 9.50001C17.2184 13.7561 13.7558 17.2188 9.49968 17.2188C7.7339 17.2188 6.00784 16.6072 4.6395 15.4968C4.51218 15.3935 4.32522 15.413 4.22191 15.5403C4.1186 15.6676 4.13804 15.8546 4.26536 15.9579C5.73916 17.1539 7.59808 17.8125 9.49968 17.8125C11.72 17.8125 13.8075 16.9479 15.3775 15.3778C16.9475 13.8078 17.8122 11.7204 17.8122 9.50001C17.8122 7.8469 17.3281 6.24986 16.4122 4.88163Z" fill="black"/>
<path d="M14.6463 3.74639C14.8459 3.925 15.0384 4.11615 15.2183 4.31446C15.2769 4.37903 15.3574 4.41184 15.4382 4.41184C15.5094 4.41184 15.5808 4.38638 15.6377 4.3348C15.7591 4.22462 15.7682 4.03685 15.658 3.91542C15.4643 3.70197 15.2571 3.49624 15.0422 3.30394C14.9201 3.19461 14.7324 3.205 14.6231 3.32717C14.5137 3.44933 14.5241 3.63703 14.6463 3.74639Z" fill="black"/>
<path d="M9.5 3.85938C9.66395 3.85938 9.79688 3.72645 9.79688 3.5625V2.67188C9.79688 2.50793 9.66395 2.375 9.5 2.375C9.33605 2.375 9.20312 2.50793 9.20312 2.67188V3.5625C9.20312 3.72645 9.33605 3.85938 9.5 3.85938Z" fill="black"/>
<path d="M9.20312 15.4375V16.3281C9.20312 16.4921 9.33605 16.625 9.5 16.625C9.66395 16.625 9.79688 16.4921 9.79688 16.3281V15.4375C9.79688 15.2736 9.66395 15.1406 9.5 15.1406C9.33605 15.1406 9.20312 15.2736 9.20312 15.4375Z" fill="black"/>
<path d="M3.85938 9.5C3.85938 9.33605 3.72645 9.20312 3.5625 9.20312H2.67188C2.50793 9.20312 2.375 9.33605 2.375 9.5C2.375 9.66395 2.50793 9.79688 2.67188 9.79688H3.5625C3.72645 9.79688 3.85938 9.66395 3.85938 9.5Z" fill="black"/>
<path d="M15.1406 9.5C15.1406 9.66395 15.2736 9.79688 15.4375 9.79688H16.3281C16.4921 9.79688 16.625 9.66395 16.625 9.5C16.625 9.33605 16.4921 9.20312 16.3281 9.20312H15.4375C15.2736 9.20312 15.1406 9.33605 15.1406 9.5Z" fill="black"/>
<path d="M6.78921 4.20954L6.34389 3.43822C6.26192 3.2962 6.08034 3.24763 5.93836 3.32956C5.79638 3.41154 5.74773 3.59311 5.82971 3.73509L6.27502 4.50641C6.33002 4.60164 6.4298 4.65489 6.53241 4.65489C6.58277 4.65489 6.63383 4.64205 6.68059 4.61507C6.82253 4.53309 6.87118 4.35152 6.78921 4.20954Z" fill="black"/>
<path d="M12.7267 14.4936C12.6447 14.3516 12.4631 14.303 12.3211 14.3849C12.1792 14.4669 12.1305 14.6485 12.2125 14.7905L12.6578 15.5618C12.7128 15.657 12.8126 15.7102 12.9152 15.7102C12.9656 15.7102 13.0166 15.6974 13.0634 15.6704C13.2054 15.5885 13.254 15.4069 13.172 15.2649L12.7267 14.4936Z" fill="black"/>
<path d="M3.58736 13.211C3.63772 13.211 3.68878 13.1981 3.73554 13.1711L4.50686 12.7258C4.64884 12.6439 4.69749 12.4623 4.61552 12.3203C4.53354 12.1783 4.35193 12.1297 4.20999 12.2116L3.43867 12.6569C3.29669 12.7389 3.24804 12.9205 3.33001 13.0625C3.38497 13.1577 3.48476 13.211 3.58736 13.211Z" fill="black"/>
<path d="M14.6426 6.82816C14.6929 6.82816 14.744 6.81532 14.7907 6.78834L15.5621 6.34303C15.704 6.26106 15.7527 6.07948 15.6707 5.9375C15.5887 5.79552 15.4072 5.74694 15.2652 5.82884L14.4939 6.27416C14.3519 6.35613 14.3032 6.53771 14.3852 6.67969C14.4402 6.77491 14.54 6.82816 14.6426 6.82816Z" fill="black"/>
<path d="M13.0633 3.32957C12.9214 3.24755 12.7398 3.2962 12.6578 3.43822L12.2125 4.20954C12.1305 4.35152 12.1792 4.5331 12.3211 4.61507C12.3679 4.64209 12.4189 4.65489 12.4693 4.65489C12.5719 4.65489 12.6717 4.60164 12.7267 4.50642L13.172 3.7351C13.254 3.59312 13.2053 3.41154 13.0633 3.32957Z" fill="black"/>
<path d="M6.68055 14.3849C6.53857 14.303 6.35699 14.3516 6.27502 14.4936L5.82971 15.2649C5.74773 15.4069 5.79638 15.5885 5.93836 15.6704C5.98512 15.6974 6.03615 15.7102 6.08654 15.7102C6.18915 15.7102 6.28893 15.657 6.34393 15.5618L6.78924 14.7905C6.87118 14.6485 6.82253 14.4669 6.68055 14.3849Z" fill="black"/>
<path d="M14.4941 12.7258L15.2654 13.1711C15.3121 13.1982 15.3632 13.211 15.4136 13.211C15.5162 13.211 15.6159 13.1577 15.6709 13.0625C15.7529 12.9205 15.7043 12.7389 15.5623 12.6569L14.791 12.2116C14.649 12.1296 14.4674 12.1783 14.3854 12.3203C14.3034 12.4623 14.3521 12.6438 14.4941 12.7258Z" fill="black"/>
<path d="M4.50618 6.27415L3.73487 5.82884C3.59289 5.74683 3.41131 5.79552 3.32934 5.9375C3.24736 6.07948 3.29601 6.26105 3.43799 6.34303L4.20931 6.78834C4.25607 6.81535 4.30709 6.82816 4.35749 6.82816C4.46009 6.82816 4.55988 6.7749 4.61488 6.67968C4.69682 6.5377 4.64816 6.35613 4.50618 6.27415Z" fill="black"/>
<path d="M11.5667 13.3761C11.6171 13.3761 11.6681 13.3633 11.7149 13.3363C11.8569 13.2543 11.9055 13.0727 11.8235 12.9308L10.1766 10.0782C10.3099 9.92245 10.3906 9.72054 10.3906 9.5C10.3906 9.11299 10.1424 8.78297 9.79688 8.66044V4.75C9.79688 4.58605 9.66395 4.45312 9.5 4.45312C9.33605 4.45312 9.20313 4.58605 9.20313 4.75V8.66044C8.8576 8.78297 8.60938 9.11299 8.60938 9.5C8.60938 9.99111 9.0089 10.3906 9.5 10.3906C9.55556 10.3906 9.60988 10.3852 9.66265 10.3755L11.3094 13.2276C11.3643 13.3229 11.4641 13.3761 11.5667 13.3761ZM9.20313 9.5C9.20313 9.33631 9.33631 9.20312 9.5 9.20312C9.66369 9.20312 9.79688 9.33631 9.79688 9.5C9.79688 9.66369 9.66369 9.79688 9.5 9.79688C9.33631 9.79688 9.20313 9.66369 9.20313 9.5Z" fill="black"/>
</svg>

<svg width="19" height="19" fill="none" xmlns="http://www.w3.org/2000/svg"><path d="M16.218 2.782A9.438 9.438 0 009.5 0a9.438 9.438 0 00-6.718 2.782A9.438 9.438 0 000 9.5c0 2.537.988 4.923 2.782 6.718A9.438 9.438 0 009.5 19a9.437 9.437 0 006.718-2.782A9.437 9.437 0 0019 9.5a9.438 9.438 0 00-2.782-6.718zm-.42 13.016A8.848 8.848 0 019.5 18.406a8.848 8.848 0 01-6.298-2.608A8.848 8.848 0 01.594 9.5c0-2.379.926-4.616 2.608-6.298A8.848 8.848 0 019.5.594c2.379 0 4.616.926 6.298 2.608A8.848 8.848 0 0118.406 9.5a8.848 8.848 0 01-2.608 6.298z" fill="#000"/><path d="M1.781 9.5c0-4.256 3.463-7.719 7.719-7.719 1.535 0 3.018.45 4.288 1.3a.297.297 0 10.33-.493 8.273 8.273 0 00-4.618-1.4c-2.22 0-4.308.864-5.878 2.434A8.258 8.258 0 001.188 9.5c0 2.048.751 4.016 2.116 5.541a.296.296 0 10.442-.396A7.706 7.706 0 011.781 9.5zm14.631-4.618a.297.297 0 00-.493.33 7.681 7.681 0 011.3 4.288c0 4.256-3.463 7.719-7.72 7.719a7.735 7.735 0 01-4.86-1.722.297.297 0 00-.374.46A8.33 8.33 0 009.5 17.813c2.22 0 4.307-.864 5.877-2.434A8.258 8.258 0 0017.813 9.5c0-1.653-.484-3.25-1.4-4.618zm-1.766-1.136c.2.179.392.37.572.568a.296.296 0 00.42.02.297.297 0 00.02-.419 8.26 8.26 0 00-.616-.611.297.297 0 10-.396.442z" fill="#000"/><path d="M9.5 3.86a.297.297 0 00.297-.297v-.891a.297.297 0 00-.594 0v.89c0 .164.133.297.297.297zm-.297 11.578v.89a.297.297 0 10.594 0v-.89a.297.297 0 00-.594 0zM3.86 9.5a.297.297 0 00-.297-.297h-.891a.297.297 0 000 .594h.89A.297.297 0 003.86 9.5zm11.28 0c0 .164.134.297.297.297h.891a.297.297 0 100-.594h-.89a.297.297 0 00-.297.297zM6.79 4.21l-.446-.772a.297.297 0 00-.514.297l.445.771a.297.297 0 10.514-.296zm5.937 10.284a.297.297 0 00-.514.296l.445.772a.297.297 0 10.514-.297l-.445-.771zm-9.14-1.283a.3.3 0 00.149-.04l.77-.445a.297.297 0 10-.296-.514l-.771.445a.297.297 0 00.148.554zm11.056-6.383c.05 0 .101-.013.148-.04l.771-.445a.297.297 0 00-.297-.514l-.771.445a.297.297 0 00.149.554zm-1.58-3.498a.297.297 0 00-.405.108l-.445.772a.297.297 0 00.514.296l.445-.77a.297.297 0 00-.109-.406zM6.68 14.385a.297.297 0 00-.405.109l-.445.77a.297.297 0 10.514.298l.445-.771a.297.297 0 00-.108-.406zm7.814-1.659l.771.445a.297.297 0 10.297-.514l-.771-.445a.297.297 0 00-.297.514zM4.506 6.274l-.771-.445a.297.297 0 10-.297.514l.771.445a.295.295 0 00.406-.108.297.297 0 00-.109-.406zm7.061 7.102a.297.297 0 00.257-.445l-1.647-2.853a.892.892 0 00-.38-1.418V4.75a.297.297 0 00-.594 0v3.91a.892.892 0 00.46 1.715l1.646 2.853a.296.296 0 00.258.148zM9.203 9.5a.297.297 0 11.595 0 .297.297 0 01-.595 0z" fill="#000"/></svg>
